X: 42
T:Queen Victoria Step Gallop. WI.042
M:2/4
Q:60
S:Wm Irwin, Folio MS, c1850. AGG's Transcription
R:Gallop
O:England
A:Lake District
Z:vmp.Chris Partington.2005
K:Bb
b|agf=e|g/f/=e/f/ d2|f/e/d/e/ c2|df b2|!
agf=e|g/f/=e/f/ d2|f/e/d/e/ cd|B2"etc..AGG"z2||
